examples/packs/starter/luts/punch.cube
LUT_3D_SIZE 2
0.00 0.00 0.00
0.55 0.00 0.00
0.00 0.50 0.00
0.60 0.55 0.00
0.00 0.00 0.50
0.55 0.00 0.55
0.00 0.55 0.55
1.00 1.00 1.00
